X: 8620
T: Crooked Bawbee, The
R: waltz
M: 3/4
K: Amixolydian
M: 6/8
|:Ace agf|eBd dce|Ace dfa|cdB A3:|
|:A/c/e/a/g/a/ fed|d/B/d/f/e/d/ dce|c/A/c/e/c/A/ d/f/a/f/d/f/|cdB A3:|
|:cBA ABc|def ece|adf eAB|1 cBA B3:|2 cdB A3||
|:c/B/A/c/B/A/ ceA|a/d/f/a/g/a/ fef|a/d/f/a/g/a/ eAB|1 cBA B3:|2 cdB A3||

